X:1
T: Rosbeg
L:1/8
Q:1/4=140
M:4/4
K:Bb
|: B2 BA FB AF | (3GAB cd GF Gd | dc2B BA FA |
B3A FB AF | (3GAB cd eG FA | AB2c cd cB :||
|: cd eG Gc Bd | dB ef eg B2 | BB2c dc df |1
fB Fc cA fg | af2c dF2G :|2 fB Fc cA GF | FF F6 |]

|：B2 BA FB AF | （3GAB cd GF Gd | dc2B BA FA |
B3A FB AF |（3GAB cd eG FA | AB2c cd cB：||
|：cd eG Gc Bd | dB ef例えばB2 | BB2c dc df | 1
fB Fc cA fg | af2c dF2G ：| 2 fB Fc cA GF | FF F6 |]
